!!!OTL: Des Markgrafen junge Braut
!!!ARE: Europa, Mitteleuropa, Deutschland
!!!SCT: A0089
!!!YEM: Copyright 1995, estate of Helmut Schaffrath.
**kern
*ICvox
*Ivox
*M4/2
*k[b-]
*F:
{2f
=1
2f
2g
2a
2cc
=2
4b-
4b-
2a
2g
2g
=3
1f
2r}
{2f
=4
2cc
2dd
2ee
2cc
=5
1ff
1dd
=6
1cc
1r}
=7
{1f
2cc
2ff
=8
2.ee
4dd
2cc
2dd
=9
2.cc
4b-
1a}
=10
{2r
2dd
2.cc
4b-
=11
2a
2f
2g
2cc
=12
4dd
4b-
2a
2g
2g
=13
1.f}
==
!!!AGN: Romanze, Ballade, Lied
!! Forster V. No. 3.
!!!ONB: ESAC (Essen Associative Code) Database: ALTDEU
!!!AMT: simple quadruple
!!!AIN: vox
!!!EED: Helmut Schaffrath
!!!EEV: 1.0
*-
